X: 29020
T: Nearly Not
R: jig
M: 6/8
K: Dmajor
BAA ABd|FED DEF|BAA ABd|FED DEF|
EDB, DEF|ABA AFA|BAe dBA|FED Dz2:|
|:fAA eAA|dAA fAA|eAA dAA|faf edB|
[1 ABA dAB|AFE DCD|CDE FGF-|FFD A,CD:|
[2 ABA dAA|ABA dAA|faf edB|ABA FED||

